X:320
T: Travers' #1
S: "Sully's Irish Music Book"
Z: B.Black
L: 1/8
M: 4/4
R: reel
K: G
ge|dBGd B2 GB|B2 GB AGED|GABd gaba|gedB A2 ge|
dBGd B2 GB|B2 GB AGED|GABd gaba|gedB G2 :|
GA|B2 dg edBd|edgd eg g2|Bdde gaba|gedB ABGA|
B2 dg edBd|edgd eg g2|Bdde gaba|gedB G2 :|
